X:1
T: Mr. Stabiliais' Favourite
C:Nathaniel Gow
R:Strathspey
Q: 128
K:Eb
M:4/4
L:1/16
|:B2|e2g2 B2e2 d2G2 c4|BE3 F3E D2F2 F2B2|e2g2 B2e2 d2=E2 F2c2|B3E E2DC B,2E2 E2B2
e2g2 B2e2 d2G2 c4|BE3 F3E D2F2 F2B2|e2g2 B2e2 d2=E2 F2c2|B3E E2DC B,2E2 E2_D2|
C2=E2 E2C2 F2A2 A2c2|f2a2 c2f2 d6 ga|b2g2 a2f2 g2e2 f2d2|e3E E2DC B,2E2 E2_D2|
C2=E2 E2C2 F2A2 A2c2|f2a2 c2f2 d4 efga|bgbg afaf gfge fefd|e3E E2DC B,2E2 E2:|
